app/src/assets/illustrations/lighthouse.svg

<svg width="320" height="485" viewBox="0 0 320 485" fill="none" xmlns="http://www.w3.org/2000/svg">
<g clip-path="url(#clip0_32_1160)">
<path d="M320 464.893V457.809C320 446.689 310.986 437.675 299.866 437.675C299.866 424.6 289.266 414 276.191 414H0V485.027H299.866C310.986 485.027 320 476.013 320 464.893Z" fill="url(#paint0_linear_32_1160)"/>
<path d="M33.2941 465.537C33.2941 476.301 42.0204 485.027 52.7844 485.027H299.866C304.165 485.027 308.141 483.669 311.411 481.374C311.921 479.604 312.209 477.739 312.209 475.806V468.723C312.209 457.603 303.194 448.589 292.075 448.589C292.075 435.513 281.475 424.914 268.4 424.914H33.2941V465.537Z" fill="url(#paint1_linear_32_1160)"/>
<path d="M292.074 448.588C292.074 435.512 281.474 424.913 268.399 424.913H76.2366C54.8907 424.913 37.5867 442.217 37.5867 463.563L59.0513 485.027H299.866C304.165 485.027 308.141 483.669 311.411 481.374C311.921 479.604 312.209 477.739 312.209 475.806V468.723C312.208 457.603 303.194 448.588 292.074 448.588V448.588Z" fill="url(#paint2_linear_32_1160)"/>
<path d="M244.52 399.814C242.349 399.814 240.26 400.162 238.302 400.8C236.208 393.968 229.851 389 222.333 389C213.11 389 205.633 396.477 205.633 405.7C205.633 407.032 205.79 408.329 206.085 409.571C198.214 410.127 192 416.686 192 424.698C192 433.074 198.791 439.865 207.166 439.865H244.52C255.58 439.865 264.545 430.899 264.545 419.839C264.545 408.78 255.58 399.814 244.52 399.814Z" fill="url(#paint3_linear_32_1160)"/>
<path d="M224.494 419.841C224.494 420.654 224.543 421.454 224.638 422.241C223.885 422.347 223.114 422.4 222.333 422.4C213.11 422.4 205.633 414.923 205.633 405.7C205.633 396.478 213.11 389.001 222.333 389.001C229.85 389.001 236.209 393.969 238.302 400.801C230.287 403.415 224.494 410.952 224.494 419.841V419.841Z" fill="url(#paint4_linear_32_1160)"/>
<path d="M192.116 426.587C193.046 434.072 199.429 439.866 207.166 439.866H244.52C253.212 439.866 260.61 434.327 263.38 426.587H192.116Z" fill="url(#paint5_linear_32_1160)"/>
<path d="M204.47 449.683H114.844C104.092 449.683 95.5199 440.701 96.0209 429.962L110.454 120.104H208.862L223.295 429.962C223.794 440.701 215.222 449.683 204.47 449.683Z" fill="url(#paint6_linear_32_1160)"/>
<path d="M214.761 246.769L208.861 120.104H110.453L109.458 141.467L214.761 246.769Z" fill="url(#paint7_linear_32_1160)"/>
<path d="M207 108.5V62H147.5L207 108.5Z" fill="url(#paint8_linear_32_1160)" fill-opacity="0.3"/>
<path d="M221.145 383.935H98.1622L101.222 318.193H218.085L221.145 383.935Z" fill="url(#paint9_linear_32_1160)"/>
<path d="M215.026 252.441H104.291L107.351 186.699H211.957L215.026 252.441Z" fill="url(#paint10_linear_32_1160)"/>
<path d="M214.761 246.769L211.957 186.699H154.691L214.761 246.769Z" fill="url(#paint11_linear_32_1160)"/>
<path d="M112.369 55.2318H206.944V124.271H112.369V55.2318Z" fill="url(#paint12_linear_32_1160)" fill-opacity="0.5"/>
<path d="M207.26 141.731H112.053C104.985 141.731 99.2555 136 99.2555 128.933V122.965C99.2555 115.897 104.986 110.167 112.053 110.167H207.26C214.329 110.167 220.058 115.898 220.058 122.965V128.933C220.058 136 214.329 141.731 207.26 141.731Z" fill="url(#paint13_linear_32_1160)"/>
<path d="M158 0C130.938 0 109 21.0829 109 47.0893V55H207V47.0893C207.001 21.0829 185.063 0 158 0V0Z" fill="url(#paint14_linear_32_1160)"/>
<path d="M213.749 62.1357H105.565C102.081 62.1357 99.2555 59.3107 99.2555 55.8261C99.2555 52.3415 102.081 49.5164 105.565 49.5164H213.749C217.233 49.5164 220.058 52.3415 220.058 55.8261C220.058 59.3107 217.234 62.1357 213.749 62.1357Z" fill="url(#paint15_linear_32_1160)"/>
<path d="M102.396 413.907C99.4029 413.907 96.5228 414.385 93.8245 415.265C90.9378 405.848 82.1757 399 71.812 399C59.0984 399 48.7916 409.307 48.7916 422.02C48.7916 423.858 49.0085 425.643 49.415 427.357C38.5649 428.121 30 437.165 30 448.209C30 459.755 39.3602 469.115 50.906 469.115H102.396C117.641 469.115 130 456.756 130 441.511C130 426.266 117.641 413.907 102.396 413.907V413.907Z" fill="url(#paint16_linear_32_1160)"/>
<path d="M74.7907 441.512C74.7907 442.632 74.8576 443.735 74.9879 444.821C73.9494 444.967 72.8878 445.041 71.8098 445.041C59.0962 445.041 48.7916 434.734 48.7916 422.02C48.7916 409.309 59.0962 399.002 71.8098 399.002C82.1724 399.002 90.9378 405.85 93.8223 415.268C82.775 418.87 74.7907 429.257 74.7907 441.512V441.512Z" fill="url(#paint17_linear_32_1160)"/>
<path d="M30.161 450.811C31.4417 461.129 40.241 469.115 50.906 469.115H102.396C114.378 469.115 124.575 461.48 128.392 450.811H30.161Z" fill="url(#paint18_linear_32_1160)"/>
</g>
<defs>
<linearGradient id="paint0_linear_32_1160" x1="160" y1="436.798" x2="160" y2="491.548" gradientUnits="userSpaceOnUse">
<stop stop-color="#C6B198"/>
<stop offset="1" stop-color="#988575"/>
</linearGradient>
<linearGradient id="paint1_linear_32_1160" x1="163.153" y1="475.815" x2="257.072" y2="244.369" gradientUnits="userSpaceOnUse">
<stop stop-color="#754C24" stop-opacity="0"/>
<stop offset="1" stop-color="#754C24"/>
</linearGradient>
<linearGradient id="paint2_linear_32_1160" x1="189.076" y1="509.549" x2="163.181" y2="427.424" gradientUnits="userSpaceOnUse">
<stop stop-color="#754C24" stop-opacity="0"/>
<stop offset="1" stop-color="#754C24"/>
</linearGradient>
<linearGradient id="paint3_linear_32_1160" x1="207.472" y1="400.463" x2="246.762" y2="439.752" gradientUnits="userSpaceOnUse">
<stop stop-color="#BADA00"/>
<stop offset="0.2187" stop-color="#B6D600"/>
<stop offset="0.4501" stop-color="#ACC900"/>
<stop offset="0.6873" stop-color="#9AB400"/>
<stop offset="0.9271" stop-color="#829700"/>
<stop offset="1" stop-color="#798C00"/>
</linearGradient>
<linearGradient id="paint4_linear_32_1160" x1="222.627" y1="405.623" x2="247.905" y2="400.483" gradientUnits="userSpaceOnUse">
<stop stop-color="#43765A" stop-opacity="0"/>
<stop offset="1" stop-color="#43765A"/>
</linearGradient>
<linearGradient id="paint5_linear_32_1160" x1="227.749" y1="429.936" x2="227.749" y2="441.654" gradientUnits="userSpaceOnUse">
<stop stop-color="#43765A" stop-opacity="0"/>
<stop offset="1" stop-color="#43765A"/>
</linearGradient>
<linearGradient id="paint6_linear_32_1160" x1="131.603" y1="284.894" x2="173.046" y2="284.894" gradientUnits="userSpaceOnUse">
<stop stop-color="#EDF5FF"/>
<stop offset="1" stop-color="#C7E9FF"/>
</linearGradient>
<linearGradient id="paint7_linear_32_1160" x1="174.932" y1="191.008" x2="138.687" y2="52.6145" gradientUnits="userSpaceOnUse">
<stop stop-color="#2F73A0" stop-opacity="0"/>
<stop offset="1" stop-color="#2F73A0"/>
</linearGradient>
<linearGradient id="paint8_linear_32_1160" x1="171.068" y1="87.9888" x2="164.465" y2="30.3684" gradientUnits="userSpaceOnUse">
<stop stop-color="#2F73A0" stop-opacity="0"/>
<stop offset="1" stop-color="#2F73A0"/>
</linearGradient>
<linearGradient id="paint9_linear_32_1160" x1="99.8639" y1="351.063" x2="219.328" y2="351.063" gradientUnits="userSpaceOnUse">
<stop stop-color="#F5737F"/>
<stop offset="1" stop-color="#D96671"/>
</linearGradient>
<linearGradient id="paint10_linear_32_1160" x1="105.824" y1="219.571" x2="213.389" y2="219.571" gradientUnits="userSpaceOnUse">
<stop stop-color="#F5737F"/>
<stop offset="1" stop-color="#D96671"/>
</linearGradient>
<linearGradient id="paint11_linear_32_1160" x1="193.093" y1="234.643" x2="162.496" y2="84.48" gradientUnits="userSpaceOnUse">
<stop stop-color="#843561" stop-opacity="0"/>
<stop offset="1" stop-color="#3A2F4D"/>
</linearGradient>
<linearGradient id="paint12_linear_32_1160" x1="125.389" y1="55.4837" x2="162.538" y2="92.6329" gradientUnits="userSpaceOnUse">
<stop stop-color="#EDF5FF"/>
<stop offset="1" stop-color="#C7E9FF"/>
</linearGradient>
<linearGradient id="paint13_linear_32_1160" x1="159.657" y1="112.503" x2="159.657" y2="140.943" gradientUnits="userSpaceOnUse">
<stop stop-color="#DFDFDF"/>
<stop offset="1" stop-color="#9DA6AC"/>
</linearGradient>
<linearGradient id="paint14_linear_32_1160" x1="142.588" y1="16.2773" x2="160.285" y2="52.472" gradientUnits="userSpaceOnUse">
<stop stop-color="#F5737F"/>
<stop offset="1" stop-color="#D96671"/>
</linearGradient>
<linearGradient id="paint15_linear_32_1160" x1="159.657" y1="50.4511" x2="159.657" y2="61.8215" gradientUnits="userSpaceOnUse">
<stop stop-color="#DFDFDF"/>
<stop offset="1" stop-color="#9DA6AC"/>
</linearGradient>
<linearGradient id="paint16_linear_32_1160" x1="51.3278" y1="414.8" x2="105.485" y2="468.958" gradientUnits="userSpaceOnUse">
<stop stop-color="#BADA00"/>
<stop offset="0.2187" stop-color="#B6D600"/>
<stop offset="0.4501" stop-color="#ACC900"/>
<stop offset="0.6873" stop-color="#9AB400"/>
<stop offset="0.9271" stop-color="#829700"/>
<stop offset="1" stop-color="#798C00"/>
</linearGradient>
<linearGradient id="paint17_linear_32_1160" x1="72.2173" y1="421.913" x2="107.062" y2="414.828" gradientUnits="userSpaceOnUse">
<stop stop-color="#43765A" stop-opacity="0"/>
<stop offset="1" stop-color="#43765A"/>
</linearGradient>
<linearGradient id="paint18_linear_32_1160" x1="79.2769" y1="455.426" x2="79.2769" y2="471.58" gradientUnits="userSpaceOnUse">
<stop stop-color="#43765A" stop-opacity="0"/>
<stop offset="1" stop-color="#43765A"/>
</linearGradient>
<clipPath id="clip0_32_1160">
<rect width="320" height="485" fill="white"/>
</clipPath>
</defs>
</svg>

<svg width="320" height="485" viewBox="0 0 320 485" fill="none" xmlns="http://www.w3.org/2000/svg"><g clip-path="url(#clip0_32_1160)"><path d="M320 464.893v-7.084c0-11.12-9.014-20.134-20.134-20.134 0-13.075-10.6-23.675-23.675-23.675H0v71.027h299.866c11.12 0 20.134-9.014 20.134-20.134z" fill="url(#paint0_linear_32_1160)"/><path d="M33.294 465.537c0 10.764 8.726 19.49 19.49 19.49h247.082c4.299 0 8.275-1.358 11.545-3.653.51-1.77.798-3.635.798-5.568v-7.083c0-11.12-9.015-20.134-20.134-20.134 0-13.076-10.6-23.675-23.675-23.675H33.294v40.623z" fill="url(#paint1_linear_32_1160)"/><path d="M292.074 448.588c0-13.076-10.6-23.675-23.675-23.675H76.237c-21.346 0-38.65 17.304-38.65 38.65l21.464 21.464h240.815c4.299 0 8.275-1.358 11.545-3.653.51-1.77.798-3.635.798-5.568v-7.083c-.001-11.12-9.015-20.135-20.135-20.135z" fill="url(#paint2_linear_32_1160)"/><path d="M244.52 399.814c-2.171 0-4.26.348-6.218.986-2.094-6.832-8.451-11.8-15.969-11.8-9.223 0-16.7 7.477-16.7 16.7 0 1.332.157 2.629.452 3.871-7.871.556-14.085 7.115-14.085 15.127 0 8.376 6.791 15.167 15.166 15.167h37.354c11.06 0 20.025-8.966 20.025-20.026 0-11.059-8.965-20.025-20.025-20.025z" fill="url(#paint3_linear_32_1160)"/><path d="M224.494 419.841c0 .813.049 1.613.144 2.4-.753.106-1.524.159-2.305.159-9.223 0-16.7-7.477-16.7-16.7 0-9.222 7.477-16.699 16.7-16.699 7.517 0 13.876 4.968 15.969 11.8-8.015 2.614-13.808 10.151-13.808 19.04z" fill="url(#paint4_linear_32_1160)"/><path d="M192.116 426.587c.93 7.485 7.313 13.279 15.05 13.279h37.354c8.692 0 16.09-5.539 18.86-13.279h-71.264z" fill="url(#paint5_linear_32_1160)"/><path d="M204.47 449.683h-89.626c-10.752 0-19.324-8.982-18.823-19.721l14.433-309.858h98.408l14.433 309.858c.499 10.739-8.073 19.721-18.825 19.721z" fill="url(#paint6_linear_32_1160)"/><path d="M214.761 246.769l-5.9-126.665h-98.408l-.995 21.363 105.303 105.302z" fill="url(#paint7_linear_32_1160)"/><path d="M207 108.5V62h-59.5l59.5 46.5z" fill="url(#paint8_linear_32_1160)" fill-opacity=".3"/><path d="M221.145 383.935H98.162l3.06-65.742h116.863l3.06 65.742z" fill="url(#paint9_linear_32_1160)"/><path d="M215.026 252.441H104.291l3.06-65.742h104.606l3.069 65.742z" fill="url(#paint10_linear_32_1160)"/><path d="M214.761 246.769l-2.804-60.07h-57.266l60.07 60.07z" fill="url(#paint11_linear_32_1160)"/><path d="M112.369 55.232h94.575v69.039h-94.575v-69.04z" fill="url(#paint12_linear_32_1160)" fill-opacity=".5"/><path d="M207.26 141.731h-95.207c-7.068 0-12.797-5.731-12.797-12.798v-5.968c0-7.068 5.73-12.798 12.797-12.798h95.207c7.069 0 12.798 5.731 12.798 12.798v5.968c0 7.067-5.729 12.798-12.798 12.798z" fill="url(#paint13_linear_32_1160)"/><path d="M158 0c-27.062 0-49 21.083-49 47.09V55h98v-7.91C207.001 21.082 185.063 0 158 0z" fill="url(#paint14_linear_32_1160)"/><path d="M213.749 62.136H105.565a6.31 6.31 0 010-12.62h108.184a6.31 6.31 0 010 12.62z" fill="url(#paint15_linear_32_1160)"/><path d="M102.396 413.907c-2.993 0-5.873.478-8.572 1.358C90.939 405.848 82.177 399 71.813 399c-12.714 0-23.02 10.307-23.02 23.02 0 1.838.216 3.623.623 5.337-10.85.764-19.415 9.808-19.415 20.852 0 11.546 9.36 20.906 20.906 20.906h51.49c15.245 0 27.604-12.359 27.604-27.604s-12.359-27.604-27.604-27.604z" fill="url(#paint16_linear_32_1160)"/><path d="M74.79 441.512c0 1.12.068 2.223.198 3.309-1.039.146-2.1.22-3.178.22-12.714 0-23.018-10.307-23.018-23.021 0-12.711 10.304-23.018 23.018-23.018 10.362 0 19.128 6.848 22.012 16.266-11.047 3.602-19.031 13.989-19.031 26.244z" fill="url(#paint17_linear_32_1160)"/><path d="M30.161 450.811c1.28 10.318 10.08 18.304 20.745 18.304h51.49c11.982 0 22.179-7.635 25.996-18.304H30.161z" fill="url(#paint18_linear_32_1160)"/></g><defs><linearGradient id="paint0_linear_32_1160" x1="160" y1="436.798" x2="160" y2="491.548" gradientUnits="userSpaceOnUse"><stop stop-color="#C6B198"/><stop offset="1" stop-color="#988575"/></linearGradient><linearGradient id="paint1_linear_32_1160" x1="163.153" y1="475.815" x2="257.072" y2="244.369" gradientUnits="userSpaceOnUse"><stop stop-color="#754C24" stop-opacity="0"/><stop offset="1" stop-color="#754C24"/></linearGradient><linearGradient id="paint2_linear_32_1160" x1="189.076" y1="509.549" x2="163.181" y2="427.424" gradientUnits="userSpaceOnUse"><stop stop-color="#754C24" stop-opacity="0"/><stop offset="1" stop-color="#754C24"/></linearGradient><linearGradient id="paint3_linear_32_1160" x1="207.472" y1="400.463" x2="246.762" y2="439.752" gradientUnits="userSpaceOnUse"><stop stop-color="#BADA00"/><stop offset=".219" stop-color="#B6D600"/><stop offset=".45" stop-color="#ACC900"/><stop offset=".687" stop-color="#9AB400"/><stop offset=".927" stop-color="#829700"/><stop offset="1" stop-color="#798C00"/></linearGradient><linearGradient id="paint4_linear_32_1160" x1="222.627" y1="405.623" x2="247.905" y2="400.483" gradientUnits="userSpaceOnUse"><stop stop-color="#43765A" stop-opacity="0"/><stop offset="1" stop-color="#43765A"/></linearGradient><linearGradient id="paint5_linear_32_1160" x1="227.749" y1="429.936" x2="227.749" y2="441.654" gradientUnits="userSpaceOnUse"><stop stop-color="#43765A" stop-opacity="0"/><stop offset="1" stop-color="#43765A"/></linearGradient><linearGradient id="paint6_linear_32_1160" x1="131.603" y1="284.894" x2="173.046" y2="284.894" gradientUnits="userSpaceOnUse"><stop stop-color="#EDF5FF"/><stop offset="1" stop-color="#C7E9FF"/></linearGradient><linearGradient id="paint7_linear_32_1160" x1="174.932" y1="191.008" x2="138.687" y2="52.614" gradientUnits="userSpaceOnUse"><stop stop-color="#2F73A0" stop-opacity="0"/><stop offset="1" stop-color="#2F73A0"/></linearGradient><linearGradient id="paint8_linear_32_1160" x1="171.068" y1="87.989" x2="164.465" y2="30.368" gradientUnits="userSpaceOnUse"><stop stop-color="#2F73A0" stop-opacity="0"/><stop offset="1" stop-color="#2F73A0"/></linearGradient><linearGradient id="paint9_linear_32_1160" x1="99.864" y1="351.063" x2="219.328" y2="351.063" gradientUnits="userSpaceOnUse"><stop stop-color="#F5737F"/><stop offset="1" stop-color="#D96671"/></linearGradient><linearGradient id="paint10_linear_32_1160" x1="105.824" y1="219.571" x2="213.389" y2="219.571" gradientUnits="userSpaceOnUse"><stop stop-color="#F5737F"/><stop offset="1" stop-color="#D96671"/></linearGradient><linearGradient id="paint11_linear_32_1160" x1="193.093" y1="234.643" x2="162.496" y2="84.48" gradientUnits="userSpaceOnUse"><stop stop-color="#843561" stop-opacity="0"/><stop offset="1" stop-color="#3A2F4D"/></linearGradient><linearGradient id="paint12_linear_32_1160" x1="125.389" y1="55.484" x2="162.538" y2="92.633" gradientUnits="userSpaceOnUse"><stop stop-color="#EDF5FF"/><stop offset="1" stop-color="#C7E9FF"/></linearGradient><linearGradient id="paint13_linear_32_1160" x1="159.657" y1="112.503" x2="159.657" y2="140.943" gradientUnits="userSpaceOnUse"><stop stop-color="#DFDFDF"/><stop offset="1" stop-color="#9DA6AC"/></linearGradient><linearGradient id="paint14_linear_32_1160" x1="142.588" y1="16.277" x2="160.285" y2="52.472" gradientUnits="userSpaceOnUse"><stop stop-color="#F5737F"/><stop offset="1" stop-color="#D96671"/></linearGradient><linearGradient id="paint15_linear_32_1160" x1="159.657" y1="50.451" x2="159.657" y2="61.822" gradientUnits="userSpaceOnUse"><stop stop-color="#DFDFDF"/><stop offset="1" stop-color="#9DA6AC"/></linearGradient><linearGradient id="paint16_linear_32_1160" x1="51.328" y1="414.8" x2="105.485" y2="468.958" gradientUnits="userSpaceOnUse"><stop stop-color="#BADA00"/><stop offset=".219" stop-color="#B6D600"/><stop offset=".45" stop-color="#ACC900"/><stop offset=".687" stop-color="#9AB400"/><stop offset=".927" stop-color="#829700"/><stop offset="1" stop-color="#798C00"/></linearGradient><linearGradient id="paint17_linear_32_1160" x1="72.217" y1="421.913" x2="107.062" y2="414.828" gradientUnits="userSpaceOnUse"><stop stop-color="#43765A" stop-opacity="0"/><stop offset="1" stop-color="#43765A"/></linearGradient><linearGradient id="paint18_linear_32_1160" x1="79.277" y1="455.426" x2="79.277" y2="471.58" gradientUnits="userSpaceOnUse"><stop stop-color="#43765A" stop-opacity="0"/><stop offset="1" stop-color="#43765A"/></linearGradient><clipPath id="clip0_32_1160"><path fill="#fff" d="M0 0h320v485H0z"/></clipPath></defs></svg>
